!!!COM:	Bach, Johann Sebastian
!!!CDT:	1685/02/21/-1750/07/28/
!!!OTL@@DE:	Herzliebster Jesu, was hast du verbrochen
!!!SCT:	BWV 245/3
!!!PC#:	59
!!!AGN:	chorale
**harm	**kern	**kern	**kern	**kern
*	*ICvox	*ICvox	*ICvox	*ICvox
*	*Ibass	*Itenor	*Ialto	*Isoprn
*	*I"Bass	*I"Tenor	*I"Alto	*I"Soprano
*	*	*oclefC4	*oclefC3	*oclefC1
*	*clefF4	*clefGv2	*clefG2	*clefG2
*k[b-e-]	*k[b-e-]	*k[b-e-]	*k[b-e-]	*k[b-e-]
*g:	*g:	*g:	*g:	*g:
*M4/4	*M4/4	*M4/4	*M4/4	*M4/4
*met(c)	*met(c)	*met(c)	*met(c)	*met(c)
*MM100	*MM100	*MM100	*MM100	*MM100
i	4G	4B-	4d	4g
=1	=1	=1	=1	=1
iv7	4C	4B-	4e-	4g
iv6	4E-	4G	4c	4g
V	4D	4A	4d	4f#
V2	4C	4F#	4A	4d
=2	=2	=2	=2	=2
i6	4BB-	4G	4d	4g
viio6	4AA	4c	4f#	4a
i	4GG	4d	4g	4b-
i	4G	4d	4g	4b-
=3	=3	=3	=3	=3
viio7	4F#	4e-	4a	4cc
i	4G	4d	4g	4b-
V;	4D;	4d;	4f#;	4a;
V	4D	4d	4f#	4a
=4	=4	=4	=4	=4
i	4G	4d	4g	4b-
iio6	4c	4e-	4a	4cc
B-:I	4B-	4fnX	4b-	4dd
V2/IV	4A-	4d	4fnX	4b-
=5	=5	=5	=5	=5
IV6	4G	4B-	4g	4ee-
ii%43	4G-	4c	4b-	4ee-
I64	4F	4d	4b-	4dd
viio7/V	4E	4g	4b-	4dd-
=6	=6	=6	=6	=6
V7	2F	2e-	2a	2cc
I;	4BB-;	4d;	4f;	4b-;
g:i	4GGnX	4d	4g	4b-
=7	=7	=7	=7	=7
iio6	4C	4c	4e-	4a
viio7/V	4C#	4B-	4e	4g
v	4.D	4.A	4.d	4.f
B-:V43	8C	8F	8A	8e-
=8	=8	=8	=8	=8
I	4BB-	4B-	4d	4f
I6	4D	4B-	4f	4f
IV	4E-	4B-	4e-	4g
V7	4F	4A	4e-	4f
=9	=9	=9	=9	=9
IV65	4GG	4B-	4d	4e-
V65	4AA	4F	4c	4e-
I;	4BB-;	4F;	4B-;	4d;
I	4BB-	4f	4b-	4dd
=10	=10	=10	=10	=10
g:viio7	4F#	4e-	4a	4cc
i	4G	4d	4g	4b-
V65/V	4C#	4e	4g	4a
V7	4D	4c	4f#	4a
=11	=11	=11	=11	=11
I;	2.GG;	2.B;	2.d;	2.g;
==	==	==	==	==
*-	*-	*-	*-	*-
!!!YOR1: 371 vierstimmige Choralges&auml;nge von Johann Sebastian Bach, 
!!!YOR2: 4th ed. by Alfred D&ouml;rffel (Leipzig: Breitkopf und H&auml;rtel, 
!!!YOR2: c.1875). 178 pp. Plate "V.A.10".  reprint: J.S. Bach, 371 Four-Part 
!!!YOR4: Chorales (New York: Associated Music Publishers, Inc., c.1940).
!!!SMS: B&H, 4th ed, Alfred D&ouml;rffel, c.1875, plate V.A.10
!!!EED:  Craig Stuart Sapp
!!!EEV:  2009/05/22
